src/static/logos/loggly.svg

<?xml version="1.0" encoding="UTF-8" standalone="no"?>
<svg width="512px" height="171px" viewBox="0 0 512 171" version="1.1" xmlns="http://www.w3.org/2000/svg" xmlns:xlink="http://www.w3.org/1999/xlink" preserveAspectRatio="xMidYMid">
    <g>
        <path d="M123.957309,77.0151175 C123.277537,73.4087352 122.122483,70.2826977 120.513403,67.6238448 C118.888127,64.9644858 116.736952,62.8922712 114.045705,61.3975839 C111.34889,59.9028966 107.970279,59.1573245 103.887095,59.1573245 C100.251355,59.1573245 97.0858374,59.8335528 94.35511,61.1581707 C91.6365304,62.4827886 89.3942464,64.4365621 87.6404057,66.9946893 C85.8987129,69.5553473 84.5938351,72.6419044 83.708057,76.230065 C82.8318959,79.8329043 82.4031793,83.9393717 82.4031793,88.5499733 C82.4031793,92.822967 82.7509105,96.7593649 83.4686438,100.361698 C84.1747356,103.958463 85.3313087,107.100192 86.91508,109.755502 C88.5084683,112.412836 90.6596437,114.474927 93.3802479,115.934184 C96.1089507,117.395464 99.4759199,118.122815 103.499377,118.122815 C107.185226,118.122815 110.392249,117.454685 113.120446,116.121968 C115.851173,114.797351 118.08131,112.87344 119.83515,110.332523 C121.586966,107.801728 122.880202,104.747059 123.718402,101.140677 C124.556601,97.5444174 124.981774,93.4394685 124.981774,88.8389901 C124.981774,84.5523301 124.635562,80.6118829 123.957309,77.0151175 L123.957309,77.0151175 Z M138.399035,123.860632 C134.44644,128.269783 129.487601,131.676232 123.528592,134.082512 C117.565534,136.483224 110.591676,137.679277 102.623722,137.679277 C94.9149218,137.679277 88.2002175,136.613306 82.4922633,134.47023 C76.7838029,132.327153 72.0542539,129.208708 68.3000732,125.12603 C64.5312138,121.043352 61.7453151,116.023267 59.9322538,110.044012 C58.1171679,104.076905 57.2237974,97.2655239 57.2237974,89.615944 C57.2237974,82.217419 58.1981533,75.4612096 60.1797655,69.3260573 C62.1628962,63.1984973 65.1203828,57.9415307 69.0750025,53.5678115 C73.029116,49.1864998 77.9803626,45.7896672 83.9074836,43.3990786 C89.8351108,40.998873 96.7872037,39.8028195 104.753133,39.8028195 C112.543425,39.8028195 119.277363,40.8485438 124.981774,42.9602388 C130.689729,45.0618107 135.403587,48.1701327 139.130435,52.2528106 C142.863357,56.3380193 145.633565,61.3677205 147.444601,67.3348281 C149.259687,73.3019357 150.165206,80.1548214 150.165206,87.8621033 C150.165206,95.2510113 149.198442,102.006715 147.248718,108.100362 C145.303043,114.198058 142.355173,119.449457 138.399035,123.860632 L138.399035,123.860632 Z M212.398964,61.0078415 C209.796801,58.4198509 206.133223,57.1245902 201.409748,57.1245902 C199.011567,57.1245902 196.909489,57.5224311 195.084786,58.3388655 C193.273749,59.1472013 191.770963,60.2410107 190.562762,61.6364909 C189.360634,63.0405758 188.472832,64.6557289 187.883663,66.5082706 C187.306641,68.3592938 187.019649,70.2826977 187.019649,72.2936671 C187.019649,76.7068668 188.312885,80.1948079 190.902901,82.7549598 C193.503039,85.3115685 197.087656,86.596706 201.698258,86.596706 C204.160215,86.596706 206.303292,86.2110129 208.114329,85.4203927 C209.92739,84.6550804 211.430176,83.577468 212.636352,82.217419 C213.830381,80.8609131 214.737924,79.287265 215.356957,77.4954624 C215.973458,75.7102398 216.282215,73.8576982 216.282215,71.9064555 C216.282215,67.2341025 214.98493,63.6079799 212.398964,61.0078415 L212.398964,61.0078415 Z M183.522091,144.302873 C183.522091,147.533685 185.155466,150.00121 188.425759,151.689756 C191.69757,153.372228 196.312727,154.218526 202.287427,154.218526 C205.973276,154.218526 209.079068,153.84245 211.611887,153.09536 C214.140657,152.347763 216.183008,151.359234 217.745015,150.125725 C219.299429,148.89171 220.396781,147.527611 221.054788,145.991419 C221.691536,144.470918 222.020033,142.865381 222.020033,141.182909 C222.020033,138.25478 220.853336,136.022113 218.522475,134.47023 C216.183008,132.904174 212.986108,132.067999 208.901406,131.939435 L191.48802,131.450992 C189.793906,132.685007 188.46119,133.859296 187.458489,135.00777 C186.448196,136.132962 185.633786,137.22424 185.016778,138.25478 C184.409894,139.290381 184.000411,140.308773 183.800985,141.28161 C183.611175,142.248374 183.522091,143.256642 183.522091,144.302873 L183.522091,144.302873 Z M243.990367,60.5214228 L233.784179,60.5214228 C235.215596,62.0834292 236.236012,63.8473931 236.846946,65.8284991 C237.469522,67.8015066 237.766131,69.8635981 237.766131,72.0071811 C237.766131,77.0647211 236.929956,81.5589062 235.237361,85.4836625 C233.564506,89.4063942 231.14456,92.7161674 228.006881,95.393242 C224.861103,98.0900567 221.054788,100.144556 216.629946,101.528394 C212.179291,102.936022 207.248291,103.620349 201.791391,103.620349 C199.011567,103.620349 196.352208,103.28021 193.819388,102.603982 C191.290618,101.929778 189.360634,101.133084 187.986413,100.211369 C187.207434,101.059691 186.511466,102.064417 185.892939,103.24073 C185.273907,104.408945 184.975273,105.692564 184.975273,107.126006 C184.975273,109.007905 185.801831,110.542579 187.458489,111.748249 C189.099962,112.954426 191.430824,113.610914 194.400459,113.737454 L215.503237,114.516432 C220.436262,114.716365 224.817573,115.414358 228.681084,116.610412 C232.538521,117.812539 235.775408,119.508678 238.402879,121.667952 C241.036424,123.842917 243.035245,126.458746 244.429207,129.507341 C245.825193,132.554418 246.525211,136.022113 246.525211,139.917512 C246.525211,144.203666 245.574138,148.233197 243.701857,152.017747 C241.821476,155.813939 239.000146,159.112071 235.237361,161.903537 C231.482674,164.689436 226.770841,166.890215 221.094774,168.521059 C215.414153,170.136718 208.802199,170.953153 201.211839,170.953153 C193.819388,170.953153 187.518216,170.366008 182.306297,169.201337 C177.08628,168.03464 172.805694,166.415438 169.468588,164.329557 C166.130977,162.259367 163.698883,159.782225 162.178381,156.891551 C160.652312,154.010495 159.896617,150.847002 159.896617,147.408664 C159.896617,145.265587 160.165894,143.221211 160.711533,141.28161 C161.259197,139.331886 162.07968,137.469727 163.145145,135.68248 C164.218708,133.900801 165.533709,132.196564 167.085592,130.573312 C168.640006,128.95006 170.413587,127.397671 172.42405,125.902984 C169.638152,124.418419 167.483433,122.38771 165.970524,119.81541 C164.438381,117.258801 163.681167,114.447089 163.681167,111.41216 C163.681167,107.584586 164.556822,104.098669 166.310663,100.948842 C168.054887,97.8050893 170.322479,94.9741424 173.114451,92.4332246 C170.842304,90.1615833 169.029243,87.4328806 167.667169,84.255721 C166.310663,81.0902031 165.63241,77.1259663 165.63241,72.3943927 C165.63241,67.3348281 166.522237,62.8133104 168.301892,58.8192103 C170.077498,54.8332088 172.564763,51.4581411 175.732305,48.6980564 C178.911489,45.9496135 182.705657,43.8363999 187.118856,42.3730945 C191.519908,40.9178876 196.381565,40.190031 201.698258,40.190031 C204.420887,40.190031 207.029124,40.3504834 209.528031,40.670882 C212.019345,40.998873 214.33654,41.4554284 216.47,42.037005 L243.990367,42.037005 C245.097337,42.037005 245.985139,42.7527137 246.669466,44.1760326 C247.349744,45.6114993 247.687858,48.0101864 247.687858,51.3771556 C247.687858,54.4950946 247.330004,56.7945746 246.619863,58.2892619 C245.904154,59.7723076 245.030524,60.5214228 243.990367,60.5214228 L243.990367,60.5214228 Z M308.46641,61.0078415 C305.872345,58.4198509 302.208767,57.1245902 297.475169,57.1245902 C295.072938,57.1245902 292.963268,57.5224311 291.152231,58.3388655 C289.341195,59.1472013 287.832335,60.2410107 286.616541,61.6364909 C285.426055,63.0405758 284.532685,64.6557289 283.951108,66.5082706 C283.374087,68.3592938 283.073429,70.2826977 283.073429,72.2936671 C283.073429,76.7068668 284.372232,80.1948079 286.964272,82.7549598 C289.566435,85.3115685 293.164719,86.596706 297.763679,86.596706 C300.235253,86.596706 302.370738,86.2110129 304.181774,85.4203927 C305.992811,84.6550804 307.509263,83.577468 308.699749,82.217419 C309.899852,80.8609131 310.809419,79.287265 311.42997,77.4954624 C312.051027,75.7102398 312.349661,73.8576982 312.349661,71.9064555 C312.349661,67.2341025 311.052376,63.6079799 308.46641,61.0078415 L308.46641,61.0078415 Z M279.577895,144.302873 C279.577895,147.533685 281.214813,150.00121 284.493204,151.689756 C287.753374,153.372228 292.383716,154.218526 298.350823,154.218526 C302.048314,154.218526 305.156636,153.84245 307.687431,153.09536 C310.214176,152.347763 312.252478,151.359234 313.81246,150.125725 C315.368899,148.89171 316.471819,147.527611 317.116666,145.991419 C317.76708,144.470918 318.081405,142.865381 318.081405,141.182909 C318.081405,138.25478 316.930399,136.022113 314.585871,134.47023 C312.252478,132.904174 309.037863,132.067999 304.954679,131.939435 L287.545849,131.450992 C285.861352,132.685007 284.516488,133.859296 283.518342,135.00777 C282.519691,136.132962 281.699207,137.22424 281.084224,138.25478 C280.465192,139.290381 280.069882,140.308773 279.86843,141.28161 C279.666473,142.248374 279.577895,143.256642 279.577895,144.302873 L279.577895,144.302873 Z M340.059837,60.5214228 L329.855674,60.5214228 C331.272919,62.0834292 332.297384,63.8473931 332.91591,65.8284991 C333.536967,67.8015066 333.841675,69.8635981 333.841675,72.0071811 C333.841675,77.0647211 332.997402,81.5589062 331.314424,85.4836625 C329.624359,89.4063942 327.205932,92.7161674 324.058129,95.393242 C320.924499,98.0900567 317.132357,100.144556 312.68575,101.528394 C308.240663,102.936022 303.311687,103.620349 297.868454,103.620349 C295.072938,103.620349 292.417629,103.28021 289.894426,102.603982 C287.360089,101.929778 285.410364,101.133084 284.048291,100.211369 C283.27488,101.059691 282.573344,102.064417 281.96241,103.24073 C281.343377,104.408945 281.036645,105.692564 281.036645,107.126006 C281.036645,109.007905 281.857129,110.542579 283.518342,111.748249 C285.168927,112.954426 287.480554,113.610914 290.476003,113.737454 L311.568658,114.516432 C316.501683,114.716365 320.893117,115.414358 324.752579,116.610412 C328.597869,117.812539 331.85247,119.508678 334.472349,121.667952 C337.088178,123.842917 339.100666,126.458746 340.494628,129.507341 C341.886565,132.554418 342.586583,136.022113 342.586583,139.917512 C342.586583,144.203666 341.653226,148.233197 339.769302,152.017747 C337.884873,155.813939 335.075184,159.112071 331.314424,161.903537 C327.54607,164.689436 322.832718,166.890215 317.171837,168.521059 C311.495265,170.136718 304.866101,170.953153 297.289408,170.953153 C289.894426,170.953153 283.571489,170.366008 278.36362,169.201337 C273.13601,168.03464 268.867066,166.415438 265.527936,164.329557 C262.192348,162.259367 259.75823,159.782225 258.234185,156.891551 C256.711659,154.010495 255.95647,150.847002 255.95647,147.408664 C255.95647,145.265587 256.234858,143.221211 256.784546,141.28161 C257.330186,139.331886 258.147126,137.469727 259.198924,135.68248 C260.276537,133.900801 261.591031,132.196564 263.145446,130.573312 C264.709477,128.95006 266.484576,127.397671 268.487447,125.902984 C265.702054,124.418419 263.54683,122.38771 262.030377,119.81541 C260.495704,117.258801 259.740514,114.447089 259.740514,111.41216 C259.740514,107.584586 260.6187,104.098669 262.37001,100.948842 C264.120308,97.8050893 266.379801,94.9741424 269.173798,92.4332246 C266.902157,90.1615833 265.089096,87.4328806 263.734615,84.255721 C262.37001,81.0902031 261.692263,77.1259663 261.692263,72.3943927 C261.692263,67.3348281 262.580066,62.8133104 264.361239,58.8192103 C266.146462,54.8332088 268.626134,51.4581411 271.799245,48.6980564 C274.964763,45.9496135 278.773102,43.8363999 283.180228,42.3730945 C287.577231,40.9178876 292.44901,40.190031 297.763679,40.190031 C300.494407,40.190031 303.102137,40.3504834 305.589402,40.670882 C308.088815,40.998873 310.408035,41.4554284 312.551112,42.037005 L340.059837,42.037005 C341.162758,42.037005 342.048536,42.7527137 342.732863,44.1760326 C343.426807,45.6114993 343.762896,48.0101864 343.762896,51.3771556 C343.762896,54.4950946 343.403017,56.7945746 342.683259,58.2892619 C341.96755,59.7723076 341.089871,60.5214228 340.059837,60.5214228 L340.059837,60.5214228 Z M510.91682,57.7319809 C510.203136,59.2246436 509.322419,59.9621172 508.299978,59.9621172 L500.579536,59.9621172 L474.945117,135.436993 L464.444344,166.184123 C463.863274,167.80535 462.277478,168.972047 459.685438,169.691805 C457.951338,170.1681 455.617945,170.466734 452.816355,170.623137 C452.541511,170.743603 452.250976,170.826613 451.952342,170.826613 L433.511454,170.826613 C432.48142,170.826613 431.603235,170.079522 430.883477,168.594452 C430.175867,167.099765 429.822061,164.788137 429.822061,161.678296 C429.822061,158.312846 430.160176,155.903023 430.836404,154.481223 C431.514151,153.053855 432.416126,152.338146 433.511454,152.338146 L442.74683,152.338146 L449.473176,135.436993 C448.626878,135.049782 447.869664,134.448465 447.193436,133.643672 C446.509109,132.825213 446.000925,131.965249 445.681033,131.053657 L419.087949,59.9621172 L409.399561,59.9621172 C408.367503,59.9621172 407.491342,59.2246436 406.77209,57.7319809 C406.063974,56.2271705 405.712193,53.9393321 405.712193,50.8294917 C405.712193,47.4544239 406.048283,45.0521937 406.732104,43.6187516 C407.410356,42.1929019 408.296135,41.4751686 409.399561,41.4751686 L425.838085,41.4751686 C426.255159,41.4751686 426.577077,41.4554284 427.010349,41.4554284 C429.800297,41.4554284 432.004619,41.5050319 433.623821,41.5961405 C435.241505,41.6948415 436.506902,41.9362793 437.408371,42.3234909 C438.325531,42.7112087 439.00176,43.3201178 439.462364,44.1249105 C439.911327,44.9413449 440.36434,46.097918 440.812796,47.5829883 L461.237321,105.672317 L461.535955,105.672317 L480.204615,46.416292 C480.582209,44.7338197 481.090393,43.6086284 481.710944,43.0609645 C482.314285,42.5133005 483.351911,42.1043241 484.760045,41.8471954 C486.195512,41.5860174 488.692394,41.4554284 492.251197,41.4554284 C492.817083,41.4554284 493.26554,41.4852917 493.787896,41.4852917 C493.807636,41.4852917 493.829401,41.4751686 493.845092,41.4751686 L508.299978,41.4751686 C509.403405,41.4751686 510.289183,42.1929019 510.967436,43.6187516 C511.660874,45.0521937 512,47.4544239 512,50.8294917 C512,53.9393321 511.635566,56.2271705 510.91682,57.7319809 Z M396.134654,133.780335 C395.418945,135.284639 394.54076,136.022113 393.510726,136.022113 L355.738616,136.022113 C354.702509,136.022113 353.822805,135.284639 353.105071,133.780335 C352.389363,132.285648 352.025434,129.995785 352.025434,126.877846 C352.025434,123.510876 352.365573,121.110165 353.057493,119.665081 C353.735745,118.251379 354.629622,117.53567 355.738616,117.53567 L362.488752,117.53567 L362.488752,18.4985903 L355.738616,18.4985903 C354.702509,18.4985903 353.822805,17.7509935 353.105071,16.2466892 C352.389363,14.7636436 352.025434,12.4621389 352.025434,9.34419993 C352.025434,5.97723076 352.365573,3.56690195 353.057493,2.14307689 C353.735745,0.717733357 354.629622,0 355.738616,0 L372.17714,0 C372.21662,0 372.248508,0.0516282105 372.290013,0.0516282105 C373.054819,0.0217648338 373.867711,0 374.727675,0 C377.129905,0 379.101394,0.100725626 380.6634,0.288510588 C382.219333,0.498060383 383.467015,0.767336932 384.40189,1.12519129 C385.350938,1.47494711 386.011476,1.92391008 386.391095,2.43968602 C386.792479,2.95799276 386.99393,3.53501394 386.99393,4.18593432 L386.99393,117.53567 L393.510726,117.53567 C394.614153,117.53567 395.508029,118.251379 396.184258,119.665081 C396.858461,121.110165 397.214291,123.510876 397.214291,126.877846 C397.214291,129.995785 396.850363,132.285648 396.134654,133.780335 Z M44.1031457,133.780335 C43.387437,135.284639 42.5112759,136.022113 41.4852917,136.022113 L3.69344168,136.022113 C2.659359,136.022113 1.7831979,135.284639 1.06394606,133.780335 C0.367977539,132.285648 2.84217094e-14,129.995785 2.84217094e-14,126.877846 C2.84217094e-14,123.510876 0.347731182,121.110165 1.02598414,119.665081 C1.70221247,118.251379 2.59811377,117.53567 3.69344168,117.53567 L10.449651,117.53567 L10.449651,18.4985903 L3.69344168,18.4985903 C2.659359,18.4985903 1.7831979,17.7509935 1.06394606,16.2466892 C0.367977539,14.7636436 2.84217094e-14,12.4621389 2.84217094e-14,9.34419993 C2.84217094e-14,5.97723076 0.347731182,3.56690195 1.02598414,2.14307689 C1.70221247,0.717733357 2.59811377,0 3.69344168,0 L20.1496807,0 C20.1891611,0 20.2185183,0.0516282105 20.2600233,0.0516282105 C21.0273603,0.0217648338 21.8240544,0 22.7002155,0 C25.090298,0 27.071404,0.100725626 28.6354351,0.288510588 C30.1898491,0.498060383 31.4253831,0.767336932 32.3825296,1.12519129 C33.3174051,1.47494711 33.9759179,1.92391008 34.3636356,2.43968602 C34.7508472,2.95799276 34.95078,3.53501394 34.95078,4.18593432 L34.95078,117.53567 L41.4852917,117.53567 C42.5826443,117.53567 43.4780394,118.251379 44.1542678,119.665081 C44.8325207,121.110165 45.1706349,123.510876 45.1706349,126.877846 C45.1706349,129.995785 44.8107559,132.285648 44.1031457,133.780335 Z" fill="#0A0B09"></path>
    </g>
</svg>

<svg width="512" height="171" xmlns="http://www.w3.org/2000/svg" preserveAspectRatio="xMidYMid"><path d="M123.957 77.015c-.68-3.606-1.835-6.732-3.444-9.391-1.625-2.66-3.776-4.732-6.467-6.226-2.697-1.495-6.076-2.24-10.159-2.24-3.636 0-6.801.676-9.532 2-2.718 1.325-4.96 3.279-6.715 5.837-1.741 2.56-3.046 5.647-3.932 9.235-.876 3.603-1.305 7.71-1.305 12.32 0 4.273.348 8.21 1.066 11.812.706 3.596 1.862 6.738 3.446 9.394 1.593 2.657 3.745 4.719 6.465 6.178 2.729 1.461 6.096 2.189 10.12 2.189 3.685 0 6.892-.668 9.62-2.001 2.731-1.325 4.961-3.249 6.715-5.79 1.752-2.53 3.045-5.585 3.883-9.191.839-3.597 1.264-7.702 1.264-12.302 0-4.287-.346-8.227-1.025-11.824zm14.442 46.846c-3.953 4.409-8.911 7.815-14.87 10.222-5.963 2.4-12.937 3.596-20.905 3.596-7.71 0-14.424-1.066-20.132-3.209-5.708-2.143-10.438-5.261-14.192-9.344-3.769-4.083-6.555-9.103-8.368-15.082-1.815-5.967-2.708-12.778-2.708-20.428 0-7.399.974-14.155 2.956-20.29 1.983-6.128 4.94-11.384 8.895-15.758 3.954-4.382 8.905-7.778 14.832-10.169 5.928-2.4 12.88-3.596 20.846-3.596 7.79 0 14.524 1.046 20.229 3.157 5.708 2.102 10.422 5.21 14.148 9.293 3.733 4.085 6.504 9.115 8.315 15.082 1.815 5.967 2.72 12.82 2.72 20.527 0 7.389-.967 14.145-2.916 20.238-1.946 6.098-4.894 11.35-8.85 15.76zm74-62.853c-2.602-2.588-6.266-3.883-10.99-3.883-2.397 0-4.5.397-6.324 1.214-1.811.808-3.314 1.902-4.522 3.297-1.202 1.405-2.09 3.02-2.68 4.872a19.301 19.301 0 00-.863 5.786c0 4.413 1.293 7.9 3.883 10.461 2.6 2.557 6.185 3.842 10.795 3.842 2.462 0 4.605-.386 6.416-1.177 1.813-.765 3.316-1.843 4.522-3.203 1.194-1.356 2.102-2.93 2.721-4.722.616-1.785.925-3.637.925-5.589 0-4.672-1.297-8.298-3.883-10.898zm-28.877 83.295c0 3.23 1.633 5.698 4.904 7.387 3.272 1.682 7.887 2.529 13.861 2.529 3.686 0 6.792-.377 9.325-1.124 2.529-.747 4.571-1.736 6.133-2.97 1.554-1.233 2.652-2.597 3.31-4.134.637-1.52.965-3.126.965-4.808 0-2.928-1.167-5.16-3.498-6.713-2.339-1.566-5.536-2.402-9.62-2.53l-17.414-.489c-1.694 1.234-3.027 2.408-4.03 3.557-1.01 1.125-1.824 2.216-2.441 3.247-.607 1.035-1.017 2.054-1.216 3.027a15.64 15.64 0 00-.279 3.02zM243.99 60.52h-10.206c1.432 1.562 2.452 3.326 3.063 5.307.623 1.974.92 4.036.92 6.18 0 5.057-.837 9.55-2.53 13.476-1.672 3.922-4.092 7.232-7.23 9.91-3.146 2.696-6.952 4.75-11.377 6.134-4.45 1.408-9.382 2.092-14.839 2.092-2.78 0-5.439-.34-7.972-1.016-2.528-.674-4.458-1.47-5.833-2.393-.779.849-1.475 1.853-2.093 3.03-.62 1.168-.918 2.452-.918 3.885 0 1.882.827 3.417 2.483 4.622 1.642 1.206 3.973 1.863 6.942 1.99l21.103.778c4.933.2 9.315.898 13.178 2.094 3.858 1.203 7.094 2.899 9.722 5.058a21.793 21.793 0 016.026 7.84c1.396 3.046 2.096 6.514 2.096 10.41 0 4.286-.95 8.315-2.823 12.1-1.88 3.796-4.702 7.094-8.465 9.886-3.754 2.785-8.466 4.986-14.142 6.617-5.68 1.616-12.293 2.432-19.883 2.432-7.393 0-13.694-.587-18.906-1.752-5.22-1.166-9.5-2.786-12.837-4.871-3.338-2.07-5.77-4.548-7.29-7.438-1.527-2.882-2.282-6.045-2.282-9.483 0-2.143.269-4.188.815-6.127.547-1.95 1.368-3.812 2.433-5.6 1.074-1.781 2.389-3.485 3.94-5.109 1.555-1.623 3.329-3.175 5.339-4.67-2.786-1.485-4.94-3.515-6.453-6.088-1.533-2.556-2.29-5.368-2.29-8.403 0-3.827.876-7.313 2.63-10.463 1.744-3.144 4.011-5.975 6.803-8.516-2.272-2.271-4.085-5-5.447-8.177-1.356-3.166-2.035-7.13-2.035-11.862 0-5.06.89-9.58 2.67-13.575 1.775-3.986 4.263-7.36 7.43-10.12 3.18-2.75 6.974-4.863 11.387-6.326 4.4-1.455 9.263-2.183 14.58-2.183 2.722 0 5.33.16 7.829.48 2.491.329 4.809.785 6.942 1.367h27.52c1.107 0 1.995.716 2.68 2.139.68 1.435 1.018 3.834 1.018 7.201 0 3.118-.358 5.418-1.068 6.912-.716 1.483-1.59 2.232-2.63 2.232zm64.476.487c-2.594-2.588-6.257-3.883-10.99-3.883-2.403 0-4.513.397-6.324 1.214-1.81.808-3.32 1.902-4.535 3.297a13.854 13.854 0 00-2.666 4.872 19.31 19.31 0 00-.878 5.786c0 4.413 1.3 7.9 3.891 10.461 2.602 2.557 6.2 3.842 10.8 3.842 2.471 0 4.607-.386 6.418-1.177 1.81-.765 3.327-1.843 4.518-3.203 1.2-1.356 2.11-2.93 2.73-4.722.621-1.785.92-3.637.92-5.589 0-4.672-1.298-8.298-3.884-10.898zm-28.888 83.295c0 3.23 1.637 5.698 4.915 7.387 3.26 1.682 7.89 2.529 13.858 2.529 3.697 0 6.806-.377 9.336-1.124 2.527-.747 4.565-1.736 6.125-2.97 1.557-1.233 2.66-2.597 3.305-4.134a12.1 12.1 0 00.964-4.808c0-2.928-1.15-5.16-3.495-6.713-2.334-1.566-5.548-2.402-9.631-2.53l-17.41-.489c-1.684 1.234-3.029 2.408-4.027 3.557-.998 1.125-1.819 2.216-2.434 3.247-.619 1.035-1.014 2.054-1.216 3.027-.202.966-.29 1.975-.29 3.02zM340.06 60.52h-10.204c1.417 1.562 2.441 3.326 3.06 5.307.621 1.974.926 4.036.926 6.18 0 5.057-.845 9.55-2.528 13.476-1.69 3.922-4.108 7.232-7.256 9.91-3.134 2.696-6.926 4.75-11.372 6.134-4.445 1.408-9.374 2.092-14.818 2.092-2.795 0-5.45-.34-7.974-1.016-2.534-.674-4.484-1.47-5.846-2.393a14.14 14.14 0 00-2.086 3.03c-.619 1.168-.925 2.452-.925 3.885 0 1.882.82 3.417 2.481 4.622 1.65 1.206 3.963 1.863 6.958 1.99l21.093.778c4.933.2 9.324.898 13.184 2.094 3.845 1.203 7.1 2.899 9.72 5.058 2.615 2.175 4.628 4.79 6.022 7.84 1.392 3.046 2.092 6.514 2.092 10.41 0 4.286-.934 8.315-2.818 12.1-1.884 3.796-4.694 7.094-8.455 9.886-3.768 2.785-8.481 4.986-14.142 6.617-5.677 1.616-12.306 2.432-19.883 2.432-7.395 0-13.718-.587-18.925-1.752-5.228-1.166-9.497-2.786-12.836-4.871-3.336-2.07-5.77-4.548-7.294-7.438-1.522-2.882-2.278-6.045-2.278-9.483 0-2.143.279-4.188.829-6.127.545-1.95 1.362-3.812 2.414-5.6a29.376 29.376 0 013.946-5.109c1.564-1.623 3.34-3.175 5.342-4.67-2.785-1.485-4.94-3.515-6.457-6.088-1.534-2.556-2.29-5.368-2.29-8.403 0-3.827.879-7.313 2.63-10.463 1.75-3.144 4.01-5.975 6.804-8.516-2.272-2.271-4.085-5-5.44-8.177-1.364-3.166-2.042-7.13-2.042-11.862 0-5.06.888-9.58 2.67-13.575 1.784-3.986 4.264-7.36 7.437-10.12 3.166-2.75 6.974-4.863 11.381-6.326 4.397-1.455 9.269-2.183 14.584-2.183 2.73 0 5.338.16 7.825.48 2.5.329 4.819.785 6.962 1.367h27.509c1.103 0 1.989.716 2.673 2.139.694 1.435 1.03 3.834 1.03 7.201 0 3.118-.36 5.418-1.08 6.912-.715 1.483-1.593 2.232-2.623 2.232zm170.857-2.789c-.714 1.493-1.595 2.23-2.617 2.23h-7.72l-25.635 75.475-10.5 30.747c-.582 1.621-2.168 2.788-4.76 3.508-1.734.476-4.067.775-6.869.931-.274.12-.565.204-.864.204h-18.44c-1.03 0-1.909-.747-2.629-2.233-.707-1.494-1.06-3.806-1.06-6.916 0-3.365.337-5.775 1.013-7.197.678-1.427 1.58-2.143 2.675-2.143h9.236l6.726-16.901c-.846-.387-1.603-.989-2.28-1.793-.684-.819-1.192-1.679-1.512-2.59l-26.593-71.092H409.4c-1.032 0-1.909-.737-2.628-2.23-.708-1.505-1.06-3.793-1.06-6.903 0-3.375.336-5.777 1.02-7.21.678-1.426 1.564-2.144 2.668-2.144h16.438c.417 0 .74-.02 1.172-.02 2.79 0 4.995.05 6.614.141 1.618.099 2.883.34 3.784.727.918.388 1.594.997 2.054 1.802.45.816.902 1.973 1.35 3.458l20.425 58.09h.299l18.669-59.257c.377-1.682.885-2.807 1.506-3.355.603-.548 1.64-.957 3.049-1.214 1.436-.261 3.932-.392 7.491-.392.566 0 1.015.03 1.537.03.02 0 .041-.01.057-.01H508.3c1.103 0 1.99.718 2.667 2.144.694 1.433 1.033 3.835 1.033 7.21 0 3.11-.364 5.398-1.083 6.903zM396.135 133.78c-.716 1.505-1.594 2.242-2.624 2.242h-37.772c-1.036 0-1.916-.737-2.634-2.242-.716-1.494-1.08-3.784-1.08-6.902 0-3.367.34-5.768 1.032-7.213.679-1.414 1.573-2.13 2.682-2.13h6.75V18.5h-6.75c-1.036 0-1.916-.748-2.634-2.252-.716-1.483-1.08-3.785-1.08-6.903 0-3.367.34-5.777 1.032-7.2C353.736.717 354.63 0 355.74 0h16.438c.04 0 .072.052.113.052A61.86 61.86 0 01374.729 0c2.402 0 4.373.1 5.935.289 1.556.21 2.804.478 3.739.836.949.35 1.61.799 1.99 1.315a2.77 2.77 0 01.602 1.746v113.35h6.517c1.103 0 1.997.715 2.673 2.13.674 1.444 1.03 3.845 1.03 7.212 0 3.118-.364 5.408-1.08 6.902zm-352.032 0c-.716 1.505-1.592 2.242-2.618 2.242H3.693c-1.034 0-1.91-.737-2.63-2.242C.369 132.286 0 129.996 0 126.878c0-3.367.348-5.768 1.026-7.213.676-1.414 1.572-2.13 2.667-2.13h6.757V18.5H3.693c-1.034 0-1.91-.748-2.63-2.252C.369 14.764 0 12.462 0 9.344c0-3.367.348-5.777 1.026-7.2C1.702.717 2.598 0 3.693 0H20.15c.04 0 .069.052.11.052C21.027.022 21.824 0 22.7 0c2.39 0 4.371.1 5.935.289 1.555.21 2.79.478 3.748.836.934.35 1.593.799 1.98 1.315.388.518.588 1.095.588 1.746v113.35h6.534c1.098 0 1.993.715 2.67 2.13.678 1.444 1.016 3.845 1.016 7.212 0 3.118-.36 5.408-1.068 6.902z" fill="#0A0B09"/></svg>
